X:1
T:Wind, Wind
T:from Joan Straumanis
B:from Rebecca Pomerantz
Z:arr. Terry Traub 5-1-02
M:6/8
K:A
L: 1/8
c3 c3| cBc B2 E| A2 A B2 B| c3-c3|
w:Wind, wind, hea-*ther gyp-sy whist-ling in my tree_
f2 f g2 g|a2 e edc|c2 B B2 c| B3-e3|
w:All the heart of me is tip-*sy at the sound of thee_
c2 c (Bc) B| (A2 c) E3|e2 e d2 d| c3-c3|
w:Sweet with scent* of clo-*ver, soft with breath of sea_
f3 g3| a2 e edc| f2 d B2 G| A3-A3|
w:Wind, wind, way-man lo-*ver whist-ling in my tree_
